svg/Pictogram/pictograms-aem-0001r-open_flame.svg

<svg viewBox="0 0 304.01 304.01"><g transform="matrix(1.35328 0 0 1.35328-53.21-52.19)" fill="#d90000" fill-rule="evenodd"><path d="m231.62 246.86h-173.44c0 0 18.566-12.223 32.668-35.488 6.25-10.313 6.109-15.508 11.984-31.25 9.1-24.379 21.15-34.782 48.41-38.08 0 0-17.859 7.993-17.39 39.485 0 0 19.04-10.578 22.796-27.965 0 0 3.29 13.629 2.821 16.449 0 0 5.172-33.14 19.976-38.543 10.176-3.715 20.21-10.574 21.618-17.625 0 0 4.23 12.692 0 20.684-4.231 7.988-16.918 14.1-13.629 34.777 0 0 8.461-7.05 9.871-11.75 0 0 7.05 8.461 0 27.731 0 0 10.34-8.461 15.04-15.981 4.699-7.519 8.929-15.98 9.398-20.21 0 0 4.231 25.379-1.879 38.543-6.109 13.16-11.281 23.03-15.508 27.731 0 0 11.352-5.461 15.977-9.872 5.06-4.816 11.75-5.64 15.512-4.23 0 0-11.278 2.82-10.809 24.91 0 0 15.508-7.519 17.391-19.738 0 0 12.691 11.75-10.813 40.42"/><path d="m98.6 179.65c-3.524-24.2 4.699-44.41 17.828-52.25 5.91-2.266 8.258-4.145 15.07-11.668 0 0-6.129 11.305-6.816 21.15-.707 10.11-9.165 15.981-14.336 20.21-5.05 4.137-11.75 22.563-11.75 22.563"/><path d="m126.63 142.11c2.113-1.649 5.797-9.961 7.695-14.04 2.348-5.05 11.985-11.633 19.504-12.11 0 0-6.461 6.934-10.1 16.571-2.715 7.187-17.09 9.574-17.09 9.574"/><path d="m220.92 129.71c-5.168.356-19.75 9.731-18.328 20.567.937 7.164 4.472 7.625 7.094 5.324 3.128-2.742 5.289-7.926 5.714-12.141.801-7.992 5.52-13.75 5.52-13.75"/><path d="m233 173.32c2.371 3.711 3.03 19.648-5.25 24.332-5.402 3.062-7.473.804-7.23-2.153.293-3.523 2.726-7.64 5.41-10.04 5.312-4.761 7.219-11.746 7.219-11.746"/></g></svg>

<?xml version="1.0" encoding="ISO-8859-1" standalone="yes"?>
<svg height="304.014" width="304.015">
  <metadata>
    <rdf:RDF xmlns:cc="http://web.resource.org/cc/" xmlns:dc="http://purl.org/dc/elements/1.1/" xmlns:rdf="http://www.w3.org/1999/02/22-rdf-syntax-ns#">
      <cc:Work rdf:about="">
        <dc:title></dc:title>
        <dc:description></dc:description>
        <dc:subject>
          <rdf:Bag>
            <rdf:li></rdf:li>
          </rdf:Bag>
        </dc:subject>
        <dc:publisher>
          <cc:Agent rdf:about="http://www.unece.org/trans/danger/publi/ghs/pictograms.html">
            <dc:title>Source: UNECE GHS of Classification and Labeling of Chemicals, Source: AEM Pictorial Database, Source: AEM Pictorial Database, Source: AEM Pictorial Database, Source: AEM Pictorial Database</dc:title>
          </cc:Agent>
        </dc:publisher>
        <dc:creator>
          <cc:Agent>
            <dc:title></dc:title>
          </cc:Agent>
        </dc:creator>
        <dc:rights>
          <cc:Agent>
            <dc:title></dc:title>
          </cc:Agent>
        </dc:rights>
        <dc:date></dc:date>
        <dc:format>image/svg+xml</dc:format>
        <dc:type rdf:resource="http://purl.org/dc/dcmitype/StillImage"/>
        <cc:license rdf:resource="http://en.wikipedia.org/wiki/Public_domain"/>
        <dc:language>en</dc:language>
      </cc:Work>
    </rdf:RDF>
  </metadata>
  <defs><marker id="ArrowEnd" markerHeight="3" markerUnits="strokeWidth" markerWidth="4" orient="auto" refX="0" refY="5" viewBox="0 0 10 10"><path d="M 0 0 L 10 5 L 0 10 z"/></marker><marker id="ArrowStart" markerHeight="3" markerUnits="strokeWidth" markerWidth="4" orient="auto" refX="10" refY="5" viewBox="0 0 10 10"><path d="M 10 0 L 0 5 L 10 10 z"/></marker> </defs>
  <g id="g2958" transform="matrix(1.3532768,0,0,1.3532781,-53.207834,-52.192858)">
    <path d="M 231.616 246.862L 58.1794 246.862C 58.1794 246.862 76.7454 234.639 90.8474 211.374C 97.0974 201.061 96.9564 195.866 102.831 180.12C 111.929 155.741 123.983 145.338 151.241 142.045C 151.241 142.045 133.382 150.038 133.851 181.53C 133.851 181.53 152.89 170.952 156.647 153.565C 156.647 153.565 159.937 167.194 159.468 170.014C 159.468 170.014 164.64 136.877 179.444 131.471C 189.62 127.756 199.651 120.897 201.062 113.846C 201.062 113.846 205.292 126.538 201.062 134.53C 196.831 142.518 184.144 148.627 187.433 169.307C 187.433 169.307 195.894 162.26 197.304 157.557C 197.304 157.557 204.354 166.018 197.304 185.288C 197.304 185.288 207.644 176.827 212.343 169.307C 217.042 161.788 221.272 153.327 221.741 149.096C 221.741 149.096 225.972 174.475 219.862 187.639C 213.753 200.799 208.581 210.666 204.354 215.37C 204.354 215.37 215.706 209.909 220.331 205.498C 225.386 200.682 232.081 199.858 235.843 201.268C 235.843 201.268 224.565 204.088 225.034 226.178C 225.034 226.178 240.542 218.659 242.425 206.44C 242.425 206.44 255.116 218.19 231.612 246.862" style="stroke:none; fill-rule:evenodd; fill:#d90000"/>
    <path d="M 98.6014 179.647C 95.0774 155.444 103.3 135.233 116.429 127.393C 122.339 125.127 124.687 123.248 131.503 115.725C 131.503 115.725 125.374 127.03 124.687 136.877C 123.98 146.983 115.522 152.858 110.351 157.088C 105.296 161.225 98.6014 179.651 98.6014 179.651" style="stroke:none; fill-rule:evenodd; fill:#d90000"/>
    <path d="M 126.628 142.108C 128.741 140.459 132.425 132.147 134.323 128.065C 136.671 123.01 146.308 116.432 153.827 115.959C 153.827 115.959 147.366 122.893 143.722 132.53C 141.007 139.717 126.628 142.104 126.628 142.104" style="stroke:none; fill-rule:evenodd; fill:#d90000"/>
    <path d="M 220.921 129.709C 215.753 130.065 201.171 139.44 202.593 150.276C 203.53 157.44 207.065 157.901 209.687 155.6C 212.815 152.858 214.976 147.674 215.401 143.459C 216.202 135.467 220.921 129.709 220.921 129.709" style="stroke:none; fill-rule:evenodd; fill:#d90000"/>
    <path d="M 232.995 173.323C 235.366 177.034 236.022 192.971 227.745 197.655C 222.343 200.717 220.272 198.459 220.515 195.502C 220.808 191.979 223.241 187.862 225.925 185.459C 231.237 180.698 233.144 173.713 233.144 173.713" style="stroke:none; fill-rule:evenodd; fill:#d90000"/>
    <path d="M 29.6204 265.393L 2.62042 265.393" style="stroke:#000000; stroke-width:0.5; fill:none"/>
    <path d="M 38.6204 274.393L 38.6204 301.393" style="stroke:#000000; stroke-width:0.5; fill:none"/>
    <path d="M 29.6204 38.6204L 2.62042 38.6204" style="stroke:#000000; stroke-width:0.5; fill:none"/>
    <path d="M 38.6204 29.6204L 38.6204 2.62042" style="stroke:#000000; stroke-width:0.5; fill:none"/>
    <path d="M 274.394 38.6204L 301.394 38.6204" style="stroke:#000000; stroke-width:0.5; fill:none"/>
    <path d="M 265.394 29.6204L 265.394 2.62042" style="stroke:#000000; stroke-width:0.5; fill:none"/>
    <path d="M 274.394 265.393L 301.394 265.393" style="stroke:#000000; stroke-width:0.5; fill:none"/>
    <path d="M 265.394 274.393L 265.394 301.393" style="stroke:#000000; stroke-width:0.5; fill:none"/>
  </g>
</svg>
